assets/Squid/Flat/squid_flat.svg

<svg width="32" height="32" viewBox="0 0 32 32" fill="none" xmlns="http://www.w3.org/2000/svg">
<path d="M18.26 2.85002L22.82 7.90002C23.43 8.51002 23.43 9.49002 22.83 10.11L17.39 15.01C16.78 15.62 15.79 15.62 15.18 15.01L9.74 10.11C9.13 9.50002 9.13 8.51002 9.74 7.90002L14.29 2.85002C15.38 1.75002 17.16 1.75002 18.26 2.85002Z" fill="#BB1D80"/>
<path d="M3 9.62995C3 9.26995 3.08 8.92995 3.22 8.62995C3.26 8.53995 3.31 8.43995 3.37 8.35995L4.29 6.65995C4.76 5.78995 6.02 5.78995 6.49 6.65995L7.39 8.31995C7.67 8.74995 7.82 9.27995 7.77 9.83995C7.72 10.4599 7.43 10.9999 6.99 11.3999C6.68 11.6799 6.51 12.0899 6.51 12.5099V16.2099C6.51 17.3999 7.27 18.4699 8.39 18.8599L12.6 20.3399C13.19 20.5499 13.49 21.1899 13.29 21.7699C13.13 22.2299 12.69 22.5199 12.23 22.5199C12.11 22.5199 11.98 22.4999 11.86 22.4599L7.65 20.9799C5.63 20.2699 4.27 18.3499 4.27 16.2099V12.5099C4.27 12.0799 4.09 11.6699 3.77 11.3799C3.3 10.9399 3 10.3199 3 9.62995Z" fill="#BB1D80"/>
<path d="M29.55 9.62995C29.55 9.26995 29.47 8.92995 29.33 8.62995C29.29 8.53995 29.24 8.43995 29.18 8.35995L28.26 6.65995C27.79 5.78995 26.53 5.78995 26.06 6.65995L25.16 8.31995C24.88 8.74995 24.73 9.27995 24.78 9.83995C24.83 10.4599 25.12 10.9999 25.56 11.3999C25.87 11.6799 26.04 12.0899 26.04 12.5099V16.2099C26.04 17.3999 25.28 18.4699 24.16 18.8599L19.95 20.3399C19.36 20.5499 19.06 21.1899 19.26 21.7699C19.42 22.2299 19.86 22.5199 20.32 22.5199C20.44 22.5199 20.57 22.4999 20.69 22.4599L24.9 20.9799C26.92 20.2699 28.28 18.3499 28.28 16.2099V12.5099C28.28 12.0799 28.46 11.6699 28.78 11.3799C29.25 10.9399 29.55 10.3199 29.55 9.62995Z" fill="#BB1D80"/>
<path d="M10.47 27.06H10.52C11.59 27.06 12.59 26.64 13.36 25.88L14.0849 25.1551L13.6 26.96C13.48 27.42 13.05 27.75 12.57 27.75H5.41C4.79 27.75 4.29 28.25 4.29 28.87C4.29 29.49 4.79 30 5.41 30H12.58C14.08 30 15.39 28.99 15.78 27.54L16.285 25.6603L16.79 27.54C17.18 28.99 18.49 30 19.99 30H27.16C27.78 30 28.29 29.49 28.29 28.87C28.29 28.25 27.79 27.75 27.17 27.75H20C19.52 27.75 19.09 27.42 18.97 26.96L18.4888 25.1688L19.21 25.89C19.97 26.64 20.97 27.06 22.04 27.06C22.0424 27.06 22.0448 27.0599 22.0472 27.0597C22.0489 27.0595 22.0506 27.0593 22.0523 27.0591C22.0546 27.0587 22.0569 27.0584 22.0592 27.058C22.0736 27.0557 22.0895 27.0532 22.11 27.06C23.2 27.04 24.21 26.6 24.96 25.81L25.68 25.06C25.8 24.93 25.94 24.91 26.02 24.91C26.1 24.91 26.24 24.92 26.37 25.05C26.81 25.49 27.52 25.49 27.96 25.05C28.4 24.61 28.4 23.9 27.96 23.46C27.43 22.93 26.73 22.65 25.99 22.66C25.24 22.67 24.55 22.97 24.04 23.51L23.32 24.26C22.99 24.61 22.55 24.8 22.07 24.81C21.59 24.82 21.14 24.64 20.8 24.3L19.78 23.2801C19.34 22.84 18.63 22.84 18.19 23.2801C18.1296 23.3404 18.0775 23.4059 18.0337 23.475L17.4529 21.3131L17.94 19.5C18.1 18.9 17.74 18.28 17.14 18.12C16.84 18.04 16.535 18.09 16.285 18.235C16.035 18.09 15.73 18.04 15.43 18.12C14.83 18.28 14.47 18.9 14.63 19.5L15.1171 21.3131L14.5382 23.468C14.494 23.3978 14.4412 23.3313 14.38 23.27C13.94 22.83 13.23 22.83 12.79 23.27L11.77 24.29C11.44 24.62 11 24.8 10.53 24.8H10.51C10.03 24.79 9.59 24.6 9.26 24.25L8.54 23.5C8.02 22.96 7.33 22.66 6.59 22.65C5.85 22.64 5.15 22.92 4.62 23.45C4.18 23.89 4.18 24.6 4.62 25.04C5.06 25.48 5.77 25.48 6.21 25.04C6.34 24.92 6.48 24.9 6.56 24.9C6.63 24.9 6.78 24.92 6.9 25.05L7.62 25.81C8.37 26.6 9.38 27.05 10.47 27.06Z" fill="#BB1D80"/>
<path d="M27.68 7.00999C27.68 7.29718 27.4472 7.52999 27.16 7.52999C26.8728 7.52999 26.64 7.29718 26.64 7.00999C26.64 6.7228 26.8728 6.48999 27.16 6.48999C27.4472 6.48999 27.68 6.7228 27.68 7.00999Z" fill="#FF6DC6"/>
<path d="M26.91 8.29002C26.91 8.57721 26.6772 8.81002 26.39 8.81002C26.1028 8.81002 25.87 8.57721 25.87 8.29002C25.87 8.00283 26.1028 7.77002 26.39 7.77002C26.6772 7.77002 26.91 8.00283 26.91 8.29002Z" fill="#FF6DC6"/>
<path d="M28.33 10.1001C28.33 10.7462 27.8062 11.2701 27.16 11.2701C26.5138 11.2701 25.99 10.7462 25.99 10.1001C25.99 9.45388 26.5138 8.93005 27.16 8.93005C27.8062 8.93005 28.33 9.45388 28.33 10.1001Z" fill="#FF6DC6"/>
<path d="M27.93 8.81002C28.2172 8.81002 28.45 8.57721 28.45 8.29002C28.45 8.00283 28.2172 7.77002 27.93 7.77002C27.6428 7.77002 27.41 8.00283 27.41 8.29002C27.41 8.57721 27.6428 8.81002 27.93 8.81002Z" fill="#FF6DC6"/>
<path d="M5.39001 11.2701C6.03618 11.2701 6.56001 10.7462 6.56001 10.1001C6.56001 9.45388 6.03618 8.93005 5.39001 8.93005C4.74384 8.93005 4.22001 9.45388 4.22001 10.1001C4.22001 10.7462 4.74384 11.2701 5.39001 11.2701Z" fill="#FF6DC6"/>
<path d="M6.68001 8.29002C6.68001 8.57721 6.4472 8.81002 6.16001 8.81002C5.87282 8.81002 5.64001 8.57721 5.64001 8.29002C5.64001 8.00283 5.87282 7.77002 6.16001 7.77002C6.4472 7.77002 6.68001 8.00283 6.68001 8.29002Z" fill="#FF6DC6"/>
<path d="M4.62001 8.81002C4.90719 8.81002 5.14001 8.57721 5.14001 8.29002C5.14001 8.00283 4.90719 7.77002 4.62001 7.77002C4.33282 7.77002 4.10001 8.00283 4.10001 8.29002C4.10001 8.57721 4.33282 8.81002 4.62001 8.81002Z" fill="#FF6DC6"/>
<path d="M5.91001 7.00999C5.91001 7.29718 5.6772 7.52999 5.39001 7.52999C5.10282 7.52999 4.87001 7.29718 4.87001 7.00999C4.87001 6.7228 5.10282 6.48999 5.39001 6.48999C5.6772 6.48999 5.91001 6.7228 5.91001 7.00999Z" fill="#FF6DC6"/>
<path d="M13.63 3.89C14.02 2.76 15.08 2 16.28 2C17.48 2 18.54 2.76 18.94 3.89L23.12 15.57C23.55 17.05 23.14 18.64 22.05 19.73C21.8165 19.9635 21.5577 20.1673 21.28 20.3385V22.5C21.28 23.88 20.16 25 18.78 25H13.82C12.44 25 11.32 23.88 11.32 22.5V20.3569C11.0309 20.1819 10.7619 19.9719 10.52 19.73C9.43999 18.64 9.01999 17.05 9.44999 15.57L13.63 3.89Z" fill="#F70A8D"/>
<path d="M15.28 12.5C15.6942 12.5 16.03 12.1642 16.03 11.75C16.03 11.3358 15.6942 11 15.28 11C14.8658 11 14.53 11.3358 14.53 11.75C14.53 12.1642 14.8658 12.5 15.28 12.5Z" fill="#BB1D80"/>
<path d="M18.28 13.62C18.8985 13.62 19.4 13.1186 19.4 12.5C19.4 11.8814 18.8985 11.38 18.28 11.38C17.6614 11.38 17.16 11.8814 17.16 12.5C17.16 13.1186 17.6614 13.62 18.28 13.62Z" fill="#BB1D80"/>
<path d="M16.53 14.9C16.53 15.5186 16.0285 16.02 15.41 16.02C14.7914 16.02 14.29 15.5186 14.29 14.9C14.29 14.2815 14.7914 13.78 15.41 13.78C16.0285 13.78 16.53 14.2815 16.53 14.9Z" fill="#BB1D80"/>
<path d="M14.59 22.65C14.59 23.0642 14.2542 23.4 13.84 23.4C13.4258 23.4 13.09 23.0642 13.09 22.65C13.09 22.2358 13.4258 21.9 13.84 21.9C14.2542 21.9 14.59 22.2358 14.59 22.65Z" fill="#1C1C1C"/>
<path d="M19.46 22.65C19.46 23.0642 19.1242 23.4 18.71 23.4C18.2958 23.4 17.96 23.0642 17.96 22.65C17.96 22.2358 18.2958 21.9 18.71 21.9C19.1242 21.9 19.46 22.2358 19.46 22.65Z" fill="#1C1C1C"/>
</svg>

<svg xmlns="http://www.w3.org/2000/svg" width="32" height="32" fill="none"><path fill="#BB1D80" d="m18.26 2.85 4.56 5.05c.61.61.61 1.59.01 2.21l-5.44 4.9c-.61.61-1.6.61-2.21 0l-5.44-4.9c-.61-.61-.61-1.6 0-2.21l4.55-5.05a2.8 2.8 0 0 1 3.97 0ZM3 9.63a2.363 2.363 0 0 1 .37-1.27l.92-1.7c.47-.87 1.73-.87 2.2 0l.9 1.66c.28.43.43.96.38 1.52-.05.62-.34 1.16-.78 1.56-.31.28-.48.69-.48 1.11v3.7c0 1.19.76 2.26 1.88 2.65l4.21 1.48c.59.21.89.85.69 1.43a1.127 1.127 0 0 1-1.43.69l-4.21-1.48a5.067 5.067 0 0 1-3.38-4.77v-3.7c0-.43-.18-.84-.5-1.13C3.3 10.94 3 10.32 3 9.63ZM29.55 9.63a2.363 2.363 0 0 0-.37-1.27l-.92-1.7c-.47-.87-1.73-.87-2.2 0l-.9 1.66c-.28.43-.43.96-.38 1.52.05.62.34 1.16.78 1.56.31.28.48.69.48 1.11v3.7c0 1.19-.76 2.26-1.88 2.65l-4.21 1.48c-.59.21-.89.85-.69 1.43a1.127 1.127 0 0 0 1.43.69l4.21-1.48a5.067 5.067 0 0 0 3.38-4.77v-3.7c0-.43.18-.84.5-1.13.47-.44.77-1.06.77-1.75Z"/><path fill="#BB1D80" d="M10.47 27.06h.05c1.07 0 2.07-.42 2.84-1.18l.725-.725-.485 1.805c-.12.46-.55.79-1.03.79H5.41c-.62 0-1.12.5-1.12 1.12 0 .62.5 1.13 1.12 1.13h7.17c1.5 0 2.81-1.01 3.2-2.46l.505-1.88.505 1.88c.39 1.45 1.7 2.46 3.2 2.46h7.17c.62 0 1.13-.51 1.13-1.13 0-.62-.5-1.12-1.12-1.12H20c-.48 0-.91-.33-1.03-.79l-.481-1.791.721.721a4.004 4.004 0 0 0 2.837 1.17h.005l.007-.002a.098.098 0 0 1 .051.002c1.09-.02 2.1-.46 2.85-1.25l.72-.75c.12-.13.26-.15.34-.15.08 0 .22.01.35.14.44.44 1.15.44 1.59 0 .44-.44.44-1.15 0-1.59a2.71 2.71 0 0 0-1.97-.8c-.75.01-1.44.31-1.95.85l-.72.75c-.33.35-.77.54-1.25.55-.48.01-.93-.17-1.27-.51l-1.02-1.02a1.122 1.122 0 0 0-1.746.195l-.581-2.162.487-1.813c.16-.6-.2-1.22-.8-1.38-.3-.08-.605-.03-.855.115a1.123 1.123 0 0 0-.855-.115c-.6.16-.96.78-.8 1.38l.487 1.813-.579 2.155a1.123 1.123 0 0 0-1.748-.198l-1.02 1.02c-.33.33-.77.51-1.24.51h-.02c-.48-.01-.92-.2-1.25-.55l-.72-.75c-.52-.54-1.21-.84-1.95-.85a2.71 2.71 0 0 0-1.97.8c-.44.44-.44 1.15 0 1.59.44.44 1.15.44 1.59 0 .13-.12.27-.14.35-.14.07 0 .22.02.34.15l.72.76c.75.79 1.76 1.24 2.85 1.25Z"/><path fill="#FF6DC6" d="M27.68 7.01a.52.52 0 1 1-1.04 0 .52.52 0 0 1 1.04 0ZM26.91 8.29a.52.52 0 1 1-1.04 0 .52.52 0 0 1 1.04 0ZM28.33 10.1a1.17 1.17 0 1 1-2.34 0 1.17 1.17 0 0 1 2.34 0ZM27.93 8.81a.52.52 0 1 0 0-1.04.52.52 0 0 0 0 1.04ZM5.39 11.27a1.17 1.17 0 1 0 0-2.34 1.17 1.17 0 0 0 0 2.34ZM6.68 8.29a.52.52 0 1 1-1.04 0 .52.52 0 0 1 1.04 0ZM4.62 8.81a.52.52 0 1 0 0-1.04.52.52 0 0 0 0 1.04ZM5.91 7.01a.52.52 0 1 1-1.04 0 .52.52 0 0 1 1.04 0Z"/><path fill="#F70A8D" d="M13.63 3.89A2.8 2.8 0 0 1 16.28 2c1.2 0 2.26.76 2.66 1.89l4.18 11.68a4.213 4.213 0 0 1-1.84 4.768V22.5a2.5 2.5 0 0 1-2.5 2.5h-4.96a2.5 2.5 0 0 1-2.5-2.5v-2.143a4.236 4.236 0 0 1-1.87-4.787l4.18-11.68Z"/><path fill="#BB1D80" d="M15.28 12.5a.75.75 0 1 0 0-1.5.75.75 0 0 0 0 1.5ZM18.28 13.62a1.12 1.12 0 1 0 0-2.24 1.12 1.12 0 0 0 0 2.24ZM16.53 14.9a1.12 1.12 0 1 1-2.24 0 1.12 1.12 0 0 1 2.24 0Z"/><path fill="#1C1C1C" d="M14.59 22.65a.75.75 0 1 1-1.5 0 .75.75 0 0 1 1.5 0ZM19.46 22.65a.75.75 0 1 1-1.5 0 .75.75 0 0 1 1.5 0Z"/></svg>
